icons/outline/time-duration-0.svg

<!--
tags: [start, zero, time, clock, reset, begin, initial, nop, default, none]
category: System
version: "2.22"
unicode: "fad4"
-->
<svg
  xmlns="http://www.w3.org/2000/svg"
  width="24"
  height="24"
  viewBox="0 0 24 24"
  fill="none"
  stroke="currentColor"
  stroke-width="2"
  stroke-linecap="round"
  stroke-linejoin="round"
>
  <path d="M3 12v.01m18 -.01v.01m-9 8.99v.01m0 -18.01v.01m-4.5 1.19v.01m9 -.01v.01m0 15.59v.01m-9 -.01v.01m-3.3 -3.31v.01m15.6 -.01v.01m0 -9.01v.01m-15.6 -.01v.01m5.8 3.49v2a2 2 0 1 0 4 0v-2a2 2 0 1 0 -4 0z" />
</svg>

<!--
tags: [start, zero, time, clock, reset, begin, initial, nop, default, none]
category: System
version: "2.22"
unicode: "fad4"
-->
<svg
  xmlns="http://www.w3.org/2000/svg"
  width="24"
  height="24"
  viewBox="0 0 24 24"
  fill="none"
  stroke="currentColor"
  stroke-width="2"
  stroke-linecap="round"
  stroke-linejoin="round"
>
    <path d="M3 12v.01M21 12v.01M12 21v.01M12 3v.01M7.5 4.2v.01M16.5 4.2v.01M16.5 19.8v.01M7.5 19.8v.01M4.2 16.5v.01M19.8 16.5v.01M19.8 7.5v.01M4.2 7.5v.01M10 11v2a2 2 0 1 0 4 0v-2a2 2 0 1 0 -4 0z" />
</svg>
